!!!OTL: Zwolf Variationen in Es, uber die Romanze 'Je suis Lindor' aus der Komodie 'Le Barbier de Seville'
!!!Variation: Variation 12 d2
!!!COM: Mozart
**function	**harm	**kern	**kern
*M3/4	*M3/4	*staff2	*staff1
*Eb:	*Eb:	*clefF4	*clefG2
*tb192	*	*k[b-e-a-]	*k[b-e-a-]
*	*	*M3/4	*M3/4
*	*	*Eb:	*Eb:
=-	=-	=-	=-
2.D	2.V7	4BB- 4D 4F 4A-	(8ee-L 8eee-
.	.	.	8ddJ) 8ddd
.	.	4BB- 4D 4F 4A-	4dd 4ddd
.	.	4r	(8ccL 8ccc
.	.	.	8b-J) 8bb-
=	=	=297	=297
2.D	2.V7d	4AA- 4BB- 4D 4F	(8ee-L 8eee-
.	.	.	8ddJ) 8ddd
.	.	4AA- 4BB- 4D 4F	4dd 4ddd
.	.	4r	4r
=	=	=298	=298
2.T	2.V65/IV	4G 4B- 4e-	(8ee-L 8eee-
.	.	.	8dd-J) 8ddd-
.	.	4G 4B- 4e-	4dd- 4ddd-
.	.	4r	(8ccL 8ccc
.	.	.	8b-J) 8bb-
=	=	=299	=299
2.T	2.V65/IV	4G 4B- 4e-	(8ee-L 8eee-
.	.	.	8dd-J) 8ddd-
.	.	4G 4B- 4e	4dd- 4ddd-
.	.	4r	4r
=	=	=300	=300
2.P	2.ii7b	4A- 4c 4f	8ccc'L
.	.	.	(8dddJ
.	.	4r	8eee-L)
.	.	.	8gg'J
.	.	4r	(8aa-L
.	.	.	8bb-J)
=	=	=301	=301
2P	2ii65	4r	8ccc'L
.	.	.	8ee'J
.	.	4r	(8ffL
.	.	.	8ggJ)
4P	4viio7/vi	8r	8aa-'L
.	.	8B'	8b'J
=	=	=302	=302
2.P	2.vi	8c'L	8cc'L
.	.	8d'J	(8ddJ
.	.	8e-'L	8ee-L)
.	.	8G'J	8g'J
.	.	8A-'L	(8a-L
.	.	8B-'J	8b-J)
=	=	=303	=303
2P	2ii	8c'L	8cc'L
.	.	8E'J	8e'J
.	.	8F'L	(8fL
.	.	8G'J	8gJ)
4P	4ivb	8A-'L	8a-'L
.	.	8CC-'J 8C-'	8c-'J
=	=	=304	=304
4D	4V	4BBB- 4BB-	4B-
2D	2viioD7/V	2AAA 2AA	2A
*M4/4	*M4/4	*	*
=	=	=305||	=305||
*	*	*M4/4	*M4/4
1D	1viio7/V	[1AAA [1AA	16ALL
.	.	.	16c
.	.	.	16e-
.	.	.	16g-JJ
.	.	.	16aLL
.	.	.	16cc
.	.	.	16ee-
.	.	.	16gg-JJ
.	.	.	16aaLL
.	.	.	16ccc
.	.	.	16eee-
.	.	.	16cccJJ
.	.	.	16aaLL
.	.	.	16gg-
.	.	.	16ee-
.	.	.	16ccJJ
=	=	=306	=306
1D	1viio7/V	4AAA] 4AA]	16aLL
.	.	.	16g-
.	.	.	16e-
.	.	.	16cJJ
.	.	16ALL	4r
.	.	16G-	.
.	.	16E-	.
.	.	16CJJ	.
.	.	16AALL	2r
.	.	16GG-	.
.	.	16EE-	.
.	.	16CCJJ	.
.	.	4AAA	.
=	=	=307	=307
1D	1C64	[4BBB-	2r
.	.	(12BBB-L]	.
.	.	12EE-	.
.	.	12GGJ	.
.	.	12BB-L	4r
.	.	12E-	.
.	.	12GJ	.
.	.	12B-L	4r
.	.	12e-	.
.	.	12gJ	.
=	=	=308	=308
1D	1V	4b-)	4r
.	.	4r	8r
.	.	.	([8b-
.	.	2r	16b-LL]
.	.	.	16cc
.	.	.	16b-
.	.	.	16aJJ
.	.	.	32b-LLL
.	.	.	32cc
.	.	.	32dd
.	.	.	32ee-JJ
.	.	.	32ffLL
.	.	.	32gg
.	.	.	32aa-
.	.	.	32bb-JJJ)
=	=	=309	=309
1D	1V7	2r	(64cccLLLL
.	.	.	64ddd
.	.	.	64eee-
.	.	.	64ddd
.	.	.	64ccc
.	.	.	64bb-
.	.	.	64aa-
.	.	.	64ggJJJ
.	.	.	64ffLLL
.	.	.	64ee-
.	.	.	64dd
.	.	.	64cc
.	.	.	64b-
.	.	.	64a-
.	.	.	64g
.	.	.	64fJJJJ
.	.	.	64e-LLLL
.	.	.	64d
.	.	.	64c
.	.	.	64B-
.	.	.	64A-
.	.	.	64G
.	.	.	64F
.	.	.	64E-JJJ
.	.	.	32DLL
.	.	.	32CJ
.	.	.	16BB-JJ
.	.	8r	16AALL
.	.	.	16BB-JJ)
.	.	(16AAALL	8r
.	.	16BBB-JJ)	.
.	.	8r	8r
.	.	16r	16r
.	.	16BB-	16F 16A- 16B- 16d
=	=	=310	=310
1T	1I	[2EE- [2BB- [2E-	(2F 2A- 2B- 2d
.	.	8EE-] 8BB-] 8E-]	8E-) 8G 8B- 8e-
.	.	8r	8r
.	.	4r	4r
==	==	==	==
*-	*-	*-	*-
